dist/assets/images/test.svg

<svg viewBox="0 0 1927 645" style="background-color:#ffffff00" xmlns="http://www.w3.org/2000/svg"><path d="M3 513v132h1920V7s-206.4 356.3-701.9 355.6c-21.5 0-56-4.6-76.8-9.9l-.9-.3C624.1 221.4 3 513 3 513z" fill="#fdedeb"/><path d="M1925.3 2c-134.5 232-440.8 354.6-700.2 354.6-124.7 0-244.6-44-369.4-44-272.7 0-605.3 80-851.4 195.4l1.7 3.7c245.6-115.3 577.6-195.1 849.7-195.1 124.8 0 244.7 44 369.4 44 258.3 0 567.1-121.1 704.6-358.3l-3.4-2-1 1.7z" fill="#e74f3f"/></svg>

<?xml version="1.0" standalone="no"?>

<svg viewBox="0 0 1927 645" style="background-color:#ffffff00" version="1.1" xmlns="http://www.w3.org/2000/svg" xmlns:xlink="http://www.w3.org/1999/xlink" xml:space="preserve" x="0px" y="0px" width="100%" height="100%">
	<path d="M 3 513 L 3 645 L 1923 645 L 1923 7 C 1923 7 1716.6 363.3 1221.1 362.6 C 1199.6 362.6 1165.1 358 1144.3 352.7 C 1144 352.6 1143.7 352.5 1143.4 352.4 C 624.1 221.4 3 513 3 513 Z" fill="#fdedeb"/>
	<path d="M 1925.3 2 C 1790.8 234 1484.5 356.6 1225.1 356.6 C 1100.4 356.6 980.5 312.6 855.7 312.6 C 583 312.6 250.4 392.6 4.3 508 L 6 511.7 C 251.6 396.4 583.6 316.6 855.7 316.6 C 980.5 316.6 1100.4 360.6 1225.1 360.6 C 1483.4 360.6 1792.2 239.5 1929.7 2.3 L 1926.3 0.3 L 1925.3 2 Z" fill="#e74f3f"/>
</svg>
